src/lib/packages/icons/src/assets/filled/comment-dots-notification.svg

<svg width="24" height="24" viewBox="0 0 24 24" fill="none" xmlns="http://www.w3.org/2000/svg">
<path d="M20.6101 9.45801C20.5551 9.29101 20.3659 9.22106 20.2019 9.28406C19.6469 9.49706 19.019 9.55702 18.366 9.44702C17.049 9.22602 15.9499 8.20196 15.6179 6.90796C15.4349 6.19396 15.478 5.53701 15.667 4.93701C15.718 4.77701 15.6429 4.601 15.4839 4.547C14.4099 4.184 13.23 3.99902 12.001 3.99902C7.03098 3.99902 3.00098 6.999 3.00098 12C3.00098 14.12 3.73093 15.8911 4.95093 17.2111C4.80093 18.1711 4.2609 19.271 3.1709 20.151C2.8409 20.431 3.03094 20.981 3.46094 20.991C4.88094 21.041 7.07089 20.851 8.41089 19.421C9.51089 19.801 10.721 20.001 12.001 20.001C16.971 20.001 21.001 17 21.001 12C21 11.083 20.8681 10.236 20.6101 9.45801ZM8.02002 13C7.46802 13 7.01489 12.552 7.01489 12C7.01489 11.448 7.45801 11 8.01001 11H8.02002C8.57302 11 9.02002 11.448 9.02002 12C9.02002 12.552 8.57202 13 8.02002 13ZM12.02 13C11.468 13 11.0149 12.552 11.0149 12C11.0149 11.448 11.458 11 12.01 11H12.02C12.573 11 13.02 11.448 13.02 12C13.02 12.552 12.572 13 12.02 13ZM16.02 13C15.468 13 15.0149 12.552 15.0149 12C15.0149 11.448 15.458 11 16.01 11H16.02C16.573 11 17.02 11.448 17.02 12C17.02 12.552 16.572 13 16.02 13ZM19 8.00195C17.896 8.00195 17 7.10595 17 6.00195C17 4.89695 17.896 4.00195 19 4.00195C20.104 4.00195 21 4.89695 21 6.00195C21 7.10595 20.104 8.00195 19 8.00195Z" fill="currentColor"/>
</svg>

<svg xmlns="http://www.w3.org/2000/svg" width="24" height="24" fill="none"><path fill="currentColor" d="M20.61 9.458c-.055-.167-.244-.237-.408-.174a3.487 3.487 0 0 1-1.836.163c-1.317-.221-2.416-1.245-2.748-2.539a3.523 3.523 0 0 1 .049-1.971c.051-.16-.024-.336-.183-.39A10.895 10.895 0 0 0 12 3.999c-4.97 0-9 3-9 8.001 0 2.12.73 3.891 1.95 5.211-.15.96-.69 2.06-1.78 2.94-.33.28-.14.83.29.84 1.42.05 3.61-.14 4.95-1.57 1.1.38 2.31.58 3.59.58 4.97 0 9-3.001 9-8.001a8.059 8.059 0 0 0-.39-2.542ZM8.02 13a1.005 1.005 0 0 1-1.005-1c0-.552.443-1 .995-1h.01a1 1 0 1 1 0 2Zm4 0a1.005 1.005 0 0 1-1.005-1c0-.552.443-1 .995-1h.01a1 1 0 1 1 0 2Zm4 0a1.005 1.005 0 0 1-1.005-1c0-.552.443-1 .995-1h.01a1 1 0 1 1 0 2ZM19 8.002A2 2 0 1 1 19.001 4 2 2 0 0 1 19 8.002Z"/></svg>
